X:255
T:Ne nézz reám, ne nevess...
M:4/4
L:1/8
K:F
Bd c2 Bd c2 | ffgg aaag | a2<f2 f2 z2 |
Bd c2 Bd c2 | ffgg aaag | a2<f2 f2 z2 |
bbff dd B2 | cBGB dcdB | A2<G2 G z2 |
bbff dd B2 | cBGB dcdB | A2<G2 G z2 |